X:1
T:Title
%%score ( 1 2 ) ( 3 4 )
L:1/8
Q:1/4=100
M:4/4
K:F
V:1 treble nm="Strings 1, Treble"
V:2 treble 
V:3 bass nm="Strings 1, Bass"
V:4 bass 
V:1
 z4 z2 [FA][FB] | [Fc]2 [CF]>[CF] [CF]2 [FB][FA] | [DG][B,D] [B,D]>[B,D] [B,D]2 [DG][DA] | %3
 [DB]2 [CE]>[CE] [CE]2 [CF][EG] | [FA][CF][CF][B,D] [A,C]2 [FA][GB] | %5
 [Ac]2 [CF]>[CF] [CF]2 [FB][FA] | [FG][Fd][Fd][Fd] [Fd]2 [GB][DG] | %7
 [CF]2 [Ac]>[Bd] [Ac][FA][CF][FA] | [EG]4 [CF]2 [Ac]>[GB] | [FA]2 [FA]2 [FA]>[FG] F>[Bd] | %10
 [Ac]4 [FA]>[Ac] [Bd]>[Ac] | [GB]2 [EG]2- [EG]>[Bd] [ce]>[Bd] | [Ac]2 [FA]4 [Ac]>[GB] | %13
 [FA]2 [FA]2 [FA]>[FG] F>[Bd] | [Ac]4 [FA]2 [Af]>[Af] | [Ge]2 [Gd]2 [Gc]2 [G=B]2 | %16
 [Gc]4- [Gc]>[GB] [FA]>[GB] | [Ac]2 [Ac]2- [Ac]>[FA] [GB]>[Ac] | [Bd]2 [Bd]4 [GB]>[FA] | %19
 [FG]2 [EG][FA] [GB]>[Bd] [Ac]>[GB] | A3- A/d/ [Fc]>[GB] [FA]>[GB] | %21
 [Ac]2 [Ac]2- [Ac]>[FA] [GB]>[Ac] | [Bd]2 [df]4[Q:1/4=100] [df]>[Bd][Q:1/4=12] | %23
 [Ac]2 [Ac]>[Bd] [Ac][FA]F[FA] | E2 z2 z4 |] %25
V:2
 x8 | x8 | x8 | x8 | x8 | x8 | x8 | x8 | x8 | x8 | x8 | x8 | x8 | x8 | x8 | x8 | x8 | x8 | x8 | %19
 x8 | F4 z4 | x8 | x8 | x8 | G2- [CG]2 [CF]2 z2 |] %25
V:3
 z4 z2 F,[F,G,] | [F,A,]2 [F,A,]>[F,A,] [F,A,]2 [F,D][F,C] | %2
w: 1.~I've~ en|list ed~ for~ life~ in~ the~|
 [B,,B,][B,,F,] [B,,F,]>[B,,F,] [B,,F,]2 [B,,F,][A,,^F,] | %3
w: ar my~ of~ the~ Lord,~ Though~ the~|
 [G,,G,]2 [C,G,]>[C,G,] [C,G,]2 [C,A,][C,B,] | [F,C][F,A,][F,A,]F, F,2 [F,C][F,C] | %5
w: fight~ may~ be~ long,~ and~ the~|strug gle~ fierce~ and~ hard;~ With~ the~|
 [F,F]2 [F,A,]>[F,A,] [F,A,]2 [F,D][F,C] | [B,D][G,B,][G,B,][G,B,] [G,B,]2 [B,,D][B,,B,] | %7
w: ar mor~ of~ God~ and~ the~|Spir it's~ trust y~ sword,~ At~ the~|
 [C,A,]2 [C,C]>[C,C] [C,C][C,C][C,A,][C,C] | C2 B,2 [F,A,]2 z2 | [F,C]2 [C,C]2 [F,C]2 z2 | %10
w: front~ of~ the~ bat tle~ you~ will~|find~ * me.~||
 [F,C]2 [C,C]2 [F,C]2 z2 | [E,C]2 [C,C]2 [E,C]2 z2 | [F,C]2 [C,C]2 [F,C]2 z2 | %13
w: |||
 [F,C]2 [C,C]2 [F,C]2 z2 | [F,C]2 [C,C]2 [F,C]2 [F,C]>[F,C] | [G,C]2 [G,F]2 [G,E]2 DF | %16
w: |||
 E2- [CE-]>[DE-] [CE-][B,E]A,G, | [F,C]2 [C,C]2 [F,C]2 z2 | [G,D]2 [D,D]2 [G,D]2 [G,D]>[A,C] | %19
w: |||
 [B,C]2 [C,C]2 [C,C]>[C,C] [C,C]>[C,C] | C3- C/B,/ [F,A,]2 z2 | [F,C]2 [C,C]2 [F,C]2 z2 | %22
w: |||
 [B,,B,]2 [B,,F,]2 [B,,B,]2 [B,,B,]>[B,,F,] | [C,F,]2 [C,C]>[C,C] [C,C][C,C][C,A,][C,C] | %24
w: ||
 [C,B,]4 [F,A,]2 z2 |] %25
w: |
V:4
 x8 | x8 | x8 | x8 | x8 | x8 | x8 | x8 | C,4 z4 | x8 | x8 | x8 | x8 | x8 | x8 | z4 z2 G,2 | %16
 C,2 z2 z4 | x8 | x8 | x8 | F,4 z4 | x8 | x8 | x8 | x8 |] %25

